X:636
T:Miss Gray of Carse
R:Strathspey
B:The Athole Collection
M:C
L:1/8
K:G Minor
F|D<G G>A B>cd>B|A<fc<f A<F A/B/c/A/|D<G G>A B>cd>g|
f>c d/c/B/A/ BGG:|
d|~g>ag>d g>a ba/g/|f<ac<f A>F A/B/c/A/|g<a g>d g>a ba/g/|
f<a A/B/c/A/ B<G G>f|~g<a g>d g>a ba/g/|f<ad<f A<F d/c/B/A/|
B<G G>A B>cd>g|fd/f/ d/c/B/A/ BG<G||

